X: 1
T: Bessarabian hora    [Em]
O: from Belf's Rumanian Orchestra
Z: 2016 John Chambers <jc:trillian.mit.edu>
M: 3/4
L: 1/8
K: Em
"A"|:\
"Em"E3 G Be | G3 B eg | B3 e gb | ^a3 g fe | ^a2 b2 (3d'^c'b |\
[1,3 "B7"^a3 g fe | "(B7)"b2 z2 B2 | "B7"b2 z2 B2 :|
[2,4 "F7"^a3 g "(B7)"fg | "Em"e3 gbg | e4 z2 \
"B"::\
"Am"^g2 a2 a2 | a3 g fe | "Em"f2 g2 g2 | g3 g fe | "B7"f2 f2 f2 |
b3 B ^c^d |\
[1,3 "Em"e3 f ga | "(E7)"b4 z2 :|\
[2,4 "Em"e3 g bg | e4 z2 \
"C"::\
"Em"E3 G GF | "B7"F3 A AG | "Em"G3 B BA |
"Am"A3 c cB | "Em"B3 A AG |\
[1,3 "B7"G3 F FE | "Em"E3 c B^A | "B7"B4 z2 :|\
[2,4 "B7"G3 F FE | "Em"E3 G BG | E4 z2 :|
Z: transcribed by Jon Cannon, from Belf's Rumanian Orchestra
